packages/dnb-eufemia/assets/icons/cloud_sync.svg

<svg width="16" height="16" viewBox="0 0 16 16" fill="none" xmlns="http://www.w3.org/2000/svg">
<path d="M3.61746 4.91807L3.75665 5.65504L3.61746 4.91807ZM5.4539 5.94369C5.81303 6.15007 6.27148 6.02624 6.47786 5.6671C6.68424 5.30796 6.56041 4.84952 6.20127 4.64314L5.4539 5.94369ZM7.72072 10.2609C7.58435 10.652 7.79087 11.0796 8.182 11.216C8.57312 11.3523 9.00073 11.1458 9.1371 10.7547L7.72072 10.2609ZM14.8124 10.5078L14.1042 10.7547L14.1765 10.9619L14.349 11.0975L14.8124 10.5078ZM15.5206 12.9805C15.657 12.5894 15.4505 12.1618 15.0594 12.0254C14.6682 11.8891 14.2406 12.0956 14.1042 12.4867L15.5206 12.9805ZM8.42891 12.7336L9.1371 12.4867L9.06487 12.2795L8.89239 12.144L8.42891 12.7336ZM15 10.6552V11.4052C15.4142 11.4052 15.75 11.0694 15.75 10.6552H15ZM15.75 8.56322C15.75 8.149 15.4142 7.81322 15 7.81322C14.5858 7.81322 14.25 8.149 14.25 8.56322H15.75ZM12.908 9.90517C12.4938 9.90517 12.158 10.241 12.158 10.6552C12.158 11.0694 12.4938 11.4052 12.908 11.4052V9.90517ZM10.3333 13.3362C10.7475 13.3362 11.0833 13.0004 11.0833 12.5862C11.0833 12.172 10.7475 11.8362 10.3333 11.8362V13.3362ZM8.24138 12.5862V11.8362C7.82717 11.8362 7.49138 12.172 7.49138 12.5862H8.24138ZM7.49138 14.6782C7.49138 15.0924 7.82717 15.4282 8.24138 15.4282C8.65559 15.4282 8.99138 15.0924 8.99138 14.6782H7.49138ZM11.814 5.08602C11.8643 5.49717 12.2384 5.78969 12.6496 5.73937C13.0607 5.68906 13.3532 5.31498 13.3029 4.90383L11.814 5.08602ZM5.24828 12.0489C5.66249 12.0489 5.99828 11.7131 5.99828 11.2989C5.99828 10.8846 5.66249 10.5489 5.24828 10.5489V12.0489ZM4.21839 10.5489C2.85514 10.5489 1.75 9.44372 1.75 8.08046H0.25C0.25 10.2721 2.02671 12.0489 4.21839 12.0489V10.5489ZM1.75 8.08046C1.75 6.87554 2.61409 5.87083 3.75665 5.65504L3.47828 4.1811C1.64029 4.52823 0.25 6.14118 0.25 8.08046H1.75ZM4.3626 5.00339C4.59165 3.00276 6.38144 1.75 8.08046 1.75V0.25C5.74236 0.25 3.20145 1.95816 2.87233 4.83276L4.3626 5.00339ZM3.75665 5.65504C4.33388 5.54603 4.94455 5.65098 5.4539 5.94369L6.20127 4.64314C5.38438 4.1737 4.41026 4.00508 3.47828 4.1811L3.75665 5.65504ZM9.1371 10.7547C9.4954 9.727 10.4731 8.99138 11.6207 8.99138V7.49138C9.81541 7.49138 8.28255 8.6494 7.72072 10.2609L9.1371 10.7547ZM11.6207 8.99138C12.7683 8.99138 13.7459 9.727 14.1042 10.7547L15.5206 10.2609C14.9588 8.6494 13.4259 7.49138 11.6207 7.49138V8.99138ZM14.1042 12.4867C13.7459 13.5144 12.7683 14.25 11.6207 14.25V15.75C13.4259 15.75 14.9588 14.592 15.5206 12.9805L14.1042 12.4867ZM11.6207 14.25C10.4731 14.25 9.4954 13.5144 9.1371 12.4867L7.72072 12.9805C8.28255 14.592 9.81541 15.75 11.6207 15.75V14.25ZM15.75 10.6552V8.56322H14.25V10.6552H15.75ZM15 9.90517H12.908V11.4052H15V9.90517ZM10.3333 11.8362H8.24138V13.3362H10.3333V11.8362ZM7.49138 12.5862V14.6782H8.99138V12.5862H7.49138ZM14.349 11.0975L14.5366 11.2449L15.4634 10.0655L15.2759 9.91808L14.349 11.0975ZM8.89239 12.144L8.70486 11.9966L7.7779 13.1759L7.96543 13.3233L8.89239 12.144ZM8.08046 1.75C10.1766 1.75 11.5998 3.33535 11.814 5.08602L13.3029 4.90383C13.0097 2.50768 11.0376 0.25 8.08046 0.25V1.75ZM4.21839 12.0489H5.24828V10.5489H4.21839V12.0489Z" fill="black"/>
</svg>

<svg width="16" height="16" viewBox="0 0 16 16" fill="none" xmlns="http://www.w3.org/2000/svg"><path d="m3.617 4.918.14.737-.14-.737Zm1.837 1.026a.75.75 0 1 0 .747-1.3l-.747 1.3ZM7.72 10.26a.75.75 0 0 0 1.416.494L7.72 10.26Zm7.091.394-.708.247.176.503h.532v-.75Zm.709 2.325a.75.75 0 0 0-1.417-.493l1.417.493Zm-7.092-.394.708-.247-.175-.503h-.533v.75Zm6.57-1.93v.75a.75.75 0 0 0 .75-.75H15Zm.75-2.093a.75.75 0 1 0-1.5 0h1.5Zm-2.841 1.342a.75.75 0 0 0 0 1.5v-1.5Zm-2.575 3.431a.75.75 0 0 0 0-1.5v1.5Zm-2.092-.75v-.75a.75.75 0 0 0-.75.75h.75Zm-.75 2.092a.75.75 0 0 0 1.5 0h-1.5Zm4.323-9.592a.75.75 0 1 0 1.489-.182l-1.489.182Zm-6.566 6.963a.75.75 0 0 0 0-1.5v1.5Zm-1.03-1.5A2.468 2.468 0 0 1 1.75 8.08H.25a3.968 3.968 0 0 0 3.968 3.969v-1.5ZM1.75 8.08a2.47 2.47 0 0 1 2.007-2.425l-.279-1.474a3.97 3.97 0 0 0-3.228 3.9h1.5Zm2.613-3.077c.229-2 2.018-3.253 3.717-3.253V.25c-2.338 0-4.879 1.708-5.208 4.583l1.49.17Zm-.606.652a2.501 2.501 0 0 1 1.697.289l.747-1.3a4.001 4.001 0 0 0-2.723-.463l.279 1.474Zm5.38 5.1a2.63 2.63 0 0 1 2.484-1.764v-1.5a4.13 4.13 0 0 0-3.9 2.77l1.416.494Zm2.484-1.764c1.098 0 2.107.833 2.483 1.911l1.417-.494c-.545-1.56-2.046-2.917-3.9-2.917v1.5Zm2.483 3.496a2.63 2.63 0 0 1-2.483 1.763v1.5a4.13 4.13 0 0 0 3.9-2.77l-1.417-.493Zm-2.483 1.763c-1.098 0-2.108-.832-2.484-1.91l-1.416.493c.544 1.56 2.045 2.917 3.9 2.917v-1.5Zm4.129-3.595V8.563h-1.5v2.092h1.5Zm-.75-.75h-2.092v1.5H15v-1.5Zm-4.667 1.931H8.241v1.5h2.092v-1.5Zm-2.842.75v2.092h1.5v-2.092h-1.5Zm7.321-1.18H15v-1.5h-.188v1.5Zm-6.383.43H8.24v1.5h.188v-1.5ZM8.08 1.75c2.097 0 3.52 1.585 3.734 3.336l1.489-.182C13.01 2.508 11.037.25 8.08.25v1.5ZM4.218 12.049h1.03v-1.5h-1.03v1.5Z" fill="#000"/></svg>
